antibot/app/images/dist/antihow-step3.svg

<svg width="126" height="124" viewBox="0 0 126 124" fill="none" xmlns="http://www.w3.org/2000/svg">
<circle cx="63" cy="64" r="49" fill="#F4FFF4" stroke="#29B74D" stroke-width="2"/>
<g filter="url(#filter0_d_79_7757)">
<path d="M63 40.8828C60.8906 40.8828 59.1914 42.5771 59.1914 44.6914C59.1914 46.8008 60.8906 48.5 63 48.5C65.1094 48.5 66.8086 46.8008 66.8086 44.6914C66.8086 42.5771 65.1094 40.8828 63 40.8828ZM58.3125 49.5742C56.2031 49.5742 54.5039 51.2734 54.5039 53.3828C54.5039 55.4922 56.2031 57.1914 58.3125 57.1914C60.4219 57.1914 62.1211 55.4922 62.1211 53.3828C62.1211 51.2734 60.4219 49.5742 58.3125 49.5742ZM67.6875 49.5742C65.5781 49.5742 63.8789 51.2734 63.8789 53.3828C63.8789 55.4922 65.5781 57.1914 67.6875 57.1914C69.7969 57.1914 71.4961 55.4922 71.4961 53.3828C71.4961 51.2734 69.7969 49.5742 67.6875 49.5742ZM53.625 58.3633C51.5156 58.3633 49.8164 60.0625 49.8164 62.1719C49.8164 64.2812 51.5156 65.9805 53.625 65.9805C55.7344 65.9805 57.4336 64.2812 57.4336 62.1719C57.4336 60.0625 55.7344 58.3633 53.625 58.3633ZM63 58.3633C60.8906 58.3633 59.1914 60.0625 59.1914 62.1719C59.1914 64.2812 60.8906 65.9805 63 65.9805C65.1094 65.9805 66.8086 64.2812 66.8086 62.1719C66.8086 60.0625 65.1094 58.3633 63 58.3633ZM72.375 58.3633C70.2656 58.3633 68.5664 60.0625 68.5664 62.1719C68.5664 64.2812 70.2656 65.9805 72.375 65.9805C74.4844 65.9805 76.1836 64.2812 76.1836 62.1719C76.1836 60.0625 74.4844 58.3633 72.375 58.3633ZM48.9375 67.0938C46.8232 67.0938 45.1289 68.793 45.1289 70.9023C45.1289 73.0117 46.8232 74.7109 48.9375 74.7109C51.0469 74.7109 52.7461 73.0117 52.7461 70.9023C52.7461 68.793 51.0469 67.0938 48.9375 67.0938ZM58.3125 67.0938C56.2031 67.0938 54.5039 68.793 54.5039 70.9023C54.5039 73.0117 56.2031 74.7109 58.3125 74.7109C60.4219 74.7109 62.1211 73.0117 62.1211 70.9023C62.1211 68.793 60.4219 67.0938 58.3125 67.0938ZM67.6875 67.0938C65.5781 67.0938 63.8789 68.793 63.8789 70.9023C63.8789 73.0117 65.5781 74.7109 67.6875 74.7109C69.7969 74.7109 71.4961 73.0117 71.4961 70.9023C71.4961 68.793 69.7969 67.0938 67.6875 67.0938ZM77.0625 67.0938C74.9531 67.0938 73.2539 68.793 73.2539 70.9023C73.2539 73.0117 74.9531 74.7109 77.0625 74.7109C79.1719 74.7109 80.8711 73.0117 80.8711 70.9023C80.8711 68.793 79.1719 67.0938 77.0625 67.0938ZM44.25 75.9414C42.1357 75.9414 40.4414 77.6406 40.4414 79.75C40.4414 81.8594 42.1357 83.5586 44.25 83.5586C46.3643 83.5586 48.0586 81.8594 48.0586 79.75C48.0586 77.6406 46.3643 75.9414 44.25 75.9414ZM53.625 75.9414C51.5156 75.9414 49.8164 77.6406 49.8164 79.75C49.8164 81.8594 51.5156 83.5586 53.625 83.5586C55.7344 83.5586 57.4336 81.8594 57.4336 79.75C57.4336 77.6406 55.7344 75.9414 53.625 75.9414ZM63 75.9414C60.8906 75.9414 59.1914 77.6406 59.1914 79.75C59.1914 81.8594 60.8906 83.5586 63 83.5586C65.1094 83.5586 66.8086 81.8594 66.8086 79.75C66.8086 77.6406 65.1094 75.9414 63 75.9414ZM72.375 75.9414C70.2656 75.9414 68.5664 77.6406 68.5664 79.75C68.5664 81.8594 70.2656 83.5586 72.375 83.5586C74.4844 83.5586 76.1836 81.8594 76.1836 79.75C76.1836 77.6406 74.4844 75.9414 72.375 75.9414ZM81.75 75.9414C79.6406 75.9414 77.9414 77.6406 77.9414 79.75C77.9414 81.8594 79.6406 83.5586 81.75 83.5586C83.8594 83.5586 85.5586 81.8594 85.5586 79.75C85.5586 77.6406 83.8594 75.9414 81.75 75.9414Z" fill="#2AB74E"/>
</g>
<rect x="11" y="85" width="36" height="36" rx="18" fill="#F4FFF4" stroke="#29B74D" stroke-width="2"/>
<path d="M27.1543 101.826H28.5605C29.1074 101.826 29.5599 101.732 29.918 101.543C30.2826 101.354 30.5527 101.094 30.7285 100.762C30.9043 100.43 30.9922 100.049 30.9922 99.6191C30.9922 99.1699 30.9108 98.7858 30.748 98.4668C30.5918 98.1413 30.3509 97.8906 30.0254 97.7148C29.7064 97.5391 29.2995 97.4512 28.8047 97.4512C28.388 97.4512 28.0104 97.5358 27.6719 97.7051C27.3398 97.8678 27.0762 98.1022 26.8809 98.4082C26.6855 98.7077 26.5879 99.0658 26.5879 99.4824H24.2246C24.2246 98.7272 24.4232 98.0566 24.8203 97.4707C25.2174 96.8848 25.7578 96.4258 26.4414 96.0938C27.1315 95.7552 27.9062 95.5859 28.7656 95.5859C29.6836 95.5859 30.4844 95.7389 31.168 96.0449C31.8581 96.3444 32.3952 96.7936 32.7793 97.3926C33.1634 97.9915 33.3555 98.7337 33.3555 99.6191C33.3555 100.023 33.2611 100.433 33.0723 100.85C32.8835 101.266 32.6035 101.647 32.2324 101.992C31.8613 102.331 31.3991 102.607 30.8457 102.822C30.2923 103.031 29.651 103.135 28.9219 103.135H27.1543V101.826ZM27.1543 103.662V102.373H28.9219C29.7552 102.373 30.4648 102.471 31.0508 102.666C31.6432 102.861 32.125 103.132 32.4961 103.477C32.8672 103.815 33.1374 104.202 33.3066 104.639C33.4824 105.075 33.5703 105.537 33.5703 106.025C33.5703 106.689 33.4499 107.282 33.209 107.803C32.9746 108.317 32.6393 108.753 32.2031 109.111C31.7669 109.469 31.2559 109.74 30.6699 109.922C30.0905 110.104 29.459 110.195 28.7754 110.195C28.1634 110.195 27.5775 110.111 27.0176 109.941C26.4577 109.772 25.9564 109.521 25.5137 109.189C25.071 108.851 24.7194 108.431 24.459 107.93C24.2051 107.422 24.0781 106.836 24.0781 106.172H26.4316C26.4316 106.595 26.5293 106.969 26.7246 107.295C26.9264 107.614 27.2064 107.865 27.5645 108.047C27.929 108.229 28.3457 108.32 28.8145 108.32C29.3092 108.32 29.7357 108.232 30.0938 108.057C30.4518 107.881 30.7253 107.62 30.9141 107.275C31.1094 106.93 31.207 106.514 31.207 106.025C31.207 105.472 31.0996 105.023 30.8848 104.678C30.6699 104.333 30.3639 104.079 29.9668 103.916C29.5697 103.747 29.1009 103.662 28.5605 103.662H27.1543Z" fill="#29B74D"/>
<defs>
<filter id="filter0_d_79_7757" x="0.441406" y="0.882812" width="125.117" height="122.676" filterUnits="userSpaceOnUse" color-interpolation-filters="sRGB">
<feFlood flood-opacity="0" result="BackgroundImageFix"/>
<feColorMatrix in="SourceAlpha" type="matrix" values="0 0 0 0 0 0 0 0 0 0 0 0 0 0 0 0 0 0 127 0" result="hardAlpha"/>
<feOffset/>
<feGaussianBlur stdDeviation="20"/>
<feComposite in2="hardAlpha" operator="out"/>
<feColorMatrix type="matrix" values="0 0 0 0 0.164706 0 0 0 0 0.717647 0 0 0 0 0.305882 0 0 0 0.4 0"/>
<feBlend mode="normal" in2="BackgroundImageFix" result="effect1_dropShadow_79_7757"/>
<feBlend mode="normal" in="SourceGraphic" in2="effect1_dropShadow_79_7757" result="shape"/>
</filter>
</defs>
</svg>

<svg width="126" height="124" fill="none" xmlns="http://www.w3.org/2000/svg"><circle cx="63" cy="64" r="49" fill="#F4FFF4" stroke="#29B74D" stroke-width="2"/><g filter="url(#a)"><path d="M63 40.883a3.798 3.798 0 0 0-3.809 3.808c0 2.11 1.7 3.809 3.809 3.809 2.11 0 3.809-1.7 3.809-3.809 0-2.114-1.7-3.808-3.809-3.808Zm-4.688 8.691a3.801 3.801 0 0 0-3.808 3.809c0 2.11 1.7 3.808 3.809 3.808s3.808-1.699 3.808-3.808c0-2.11-1.7-3.809-3.809-3.809Zm9.376 0c-2.11 0-3.81 1.7-3.81 3.809a3.8 3.8 0 0 0 3.81 3.808 3.8 3.8 0 0 0 3.808-3.808c0-2.11-1.7-3.809-3.808-3.809Zm-14.063 8.79a3.8 3.8 0 0 0-3.809 3.808c0 2.11 1.7 3.809 3.809 3.809 2.11 0 3.809-1.7 3.809-3.81 0-2.108-1.7-3.808-3.809-3.808Zm9.375 0a3.8 3.8 0 0 0-3.809 3.808c0 2.11 1.7 3.809 3.809 3.809 2.11 0 3.809-1.7 3.809-3.81 0-2.108-1.7-3.808-3.809-3.808Zm9.375 0a3.8 3.8 0 0 0-3.809 3.808c0 2.11 1.7 3.809 3.809 3.809 2.11 0 3.809-1.7 3.809-3.81 0-2.108-1.7-3.808-3.809-3.808Zm-23.438 8.73a3.798 3.798 0 0 0-3.808 3.808 3.798 3.798 0 0 0 3.809 3.809c2.109 0 3.808-1.7 3.808-3.809s-1.7-3.808-3.809-3.808Zm9.376 0a3.802 3.802 0 0 0-3.81 3.808c0 2.11 1.7 3.809 3.81 3.809 2.109 0 3.808-1.7 3.808-3.809s-1.7-3.808-3.809-3.808Zm9.374 0a3.8 3.8 0 0 0-3.808 3.808c0 2.11 1.7 3.809 3.809 3.809s3.808-1.7 3.808-3.809-1.7-3.808-3.808-3.808Zm9.376 0a3.802 3.802 0 0 0-3.81 3.808c0 2.11 1.7 3.809 3.81 3.809 2.109 0 3.808-1.7 3.808-3.809s-1.7-3.808-3.808-3.808ZM44.25 75.94a3.798 3.798 0 0 0-3.809 3.809 3.798 3.798 0 0 0 3.809 3.809c2.114 0 3.809-1.7 3.809-3.809a3.798 3.798 0 0 0-3.809-3.809Zm9.375 0c-2.11 0-3.809 1.7-3.809 3.809 0 2.11 1.7 3.809 3.809 3.809 2.11 0 3.809-1.7 3.809-3.809 0-2.11-1.7-3.809-3.809-3.809Zm9.375 0c-2.11 0-3.809 1.7-3.809 3.809 0 2.11 1.7 3.809 3.809 3.809 2.11 0 3.809-1.7 3.809-3.809 0-2.11-1.7-3.809-3.809-3.809Zm9.375 0c-2.11 0-3.809 1.7-3.809 3.809 0 2.11 1.7 3.809 3.809 3.809 2.11 0 3.809-1.7 3.809-3.809 0-2.11-1.7-3.809-3.809-3.809Zm9.375 0c-2.11 0-3.809 1.7-3.809 3.809 0 2.11 1.7 3.809 3.809 3.809 2.11 0 3.809-1.7 3.809-3.809 0-2.11-1.7-3.809-3.809-3.809Z" fill="#2AB74E"/></g><rect x="11" y="85" width="36" height="36" rx="18" fill="#F4FFF4" stroke="#29B74D" stroke-width="2"/><path d="M27.154 101.826h1.407c.546 0 .999-.094 1.357-.283a1.84 1.84 0 0 0 .81-.781c.176-.332.264-.713.264-1.143 0-.45-.081-.833-.244-1.152a1.648 1.648 0 0 0-.723-.752c-.319-.176-.726-.264-1.22-.264a2.5 2.5 0 0 0-1.133.254 1.923 1.923 0 0 0-.791.703c-.195.3-.293.658-.293 1.074h-2.363c0-.755.198-1.425.595-2.011a4.049 4.049 0 0 1 1.621-1.377c.69-.339 1.465-.508 2.325-.508.918 0 1.718.153 2.402.459.69.3 1.227.749 1.611 1.348.384.599.576 1.34.576 2.226 0 .404-.094.814-.283 1.231a3.579 3.579 0 0 1-.84 1.142c-.37.339-.833.615-1.386.83-.554.209-1.195.313-1.924.313h-1.768v-1.309Zm0 1.836v-1.289h1.768c.833 0 1.543.098 2.129.293.592.195 1.074.466 1.445.811.371.338.641.725.81 1.162.176.436.264.898.264 1.386 0 .664-.12 1.257-.361 1.778-.234.514-.57.95-1.006 1.308a4.485 4.485 0 0 1-1.533.811 6.298 6.298 0 0 1-1.895.273 6.016 6.016 0 0 1-1.757-.254 4.79 4.79 0 0 1-1.504-.752 3.725 3.725 0 0 1-1.055-1.259c-.254-.508-.38-1.094-.38-1.758h2.353c0 .423.097.797.293 1.123.201.319.481.57.84.752.364.182.78.273 1.25.273.494 0 .92-.088 1.279-.263.358-.176.631-.437.82-.782.195-.345.293-.761.293-1.25 0-.553-.107-1.002-.322-1.347a1.898 1.898 0 0 0-.918-.762c-.397-.169-.866-.254-1.406-.254h-1.407Z" fill="#29B74D"/><defs><filter id="a" x=".441" y=".883" width="125.117" height="122.676" filterUnits="userSpaceOnUse" color-interpolation-filters="sRGB"><feFlood flood-opacity="0" result="BackgroundImageFix"/><feColorMatrix in="SourceAlpha" values="0 0 0 0 0 0 0 0 0 0 0 0 0 0 0 0 0 0 127 0" result="hardAlpha"/><feOffset/><feGaussianBlur stdDeviation="20"/><feComposite in2="hardAlpha" operator="out"/><feColorMatrix values="0 0 0 0 0.164706 0 0 0 0 0.717647 0 0 0 0 0.305882 0 0 0 0.4 0"/><feBlend in2="BackgroundImageFix" result="effect1_dropShadow_79_7757"/><feBlend in="SourceGraphic" in2="effect1_dropShadow_79_7757" result="shape"/></filter></defs></svg>
